src/svg/36/music_outline_36.svg

<svg fill="none" height="36" viewBox="0 0 36 36" width="36" xmlns="http://www.w3.org/2000/svg"><path clip-rule="evenodd" d="m28.902 8.0428c-.4305-2.06615-2.4543-3.39216-4.5205-2.96171l-9.2907 1.93557-.2627.05658c-1.0104.22561-1.5533.44774-2.1012.84407-.561.40576-.9907.9343-1.2736 1.56622-.2992.66867-.3995 1.28987-.3995 2.49787v10.339h-.6315c-5.99738 0-9.07892 5.8549-5.90119 9.0326 3.17772 3.1777 9.03269.0962 9.03269-5.9011v-1.7921l.0005-7.9837 12.928-2.6933v6.1233h-.6315c-5.9973 0-9.0788 5.8549-5.9011 9.0326 3.1777 3.1778 9.0326.0962 9.0326-5.9011v-1.792-1.3395-10.2839l-.0089-.26148c-.012-.17397-.0358-.34701-.0714-.51792zm-2.4197 2.3863v-1.6069c0-.09055-.0093-.18087-.0278-.26951-.1395-.66981-.7633-1.11468-1.4295-1.04502l-.1336.02087-9.2908 1.93557c-.867.18064-1.1415.28569-1.4085.47883-.2053.14846-.3534.33066-.4569.56186l-.056.1403c-.0835.2399-.1189.5287-.1246 1.1422l-.0001 1.3351zm-15.4285 15.0228-.0002-.6314-.6313-.0001c-3.9052 0-5.62696 3.2713-4.13343 4.7649 1.49354 1.4935 4.76493-.2283 4.76493-4.1334zm15.4278-3.8449.0007.6306c0 3.9051-3.2713 5.6269-4.7649 4.1334-1.4935-1.4936.2283-4.7649 4.1334-4.7649z" fill="currentColor" fill-rule="evenodd"/></svg>

<svg width="36" height="36" viewBox="0 0 36 36" fill="none" xmlns="http://www.w3.org/2000/svg">
<path fill-rule="evenodd" clip-rule="evenodd" d="M28.902 8.0428C28.4715 5.97665 26.4477 4.65064 24.3815 5.08109L15.0908 7.01666L14.8281 7.07324C13.8177 7.29885 13.2748 7.52098 12.7269 7.91731C12.1659 8.32307 11.7362 8.85161 11.4533 9.48353C11.1541 10.1522 11.0538 10.7734 11.0538 11.9814V22.3204H10.4223C4.42492 22.3204 1.34338 28.1753 4.52111 31.353C7.69883 34.5307 13.5538 31.4492 13.5538 25.4519V23.6598L13.5543 15.6761L26.4823 12.9828V19.1061H25.8508C19.8535 19.1061 16.772 24.961 19.9497 28.1387C23.1274 31.3165 28.9823 28.2349 28.9823 22.2376V20.4456V19.1061V8.8222L28.9734 8.56072C28.9614 8.38675 28.9376 8.21371 28.902 8.0428ZM26.4823 10.4291V8.8222C26.4823 8.73165 26.473 8.64133 26.4545 8.55269C26.315 7.88288 25.6912 7.43801 25.025 7.50767L24.8914 7.52854L15.6006 9.46411C14.7336 9.64475 14.4591 9.7498 14.1921 9.94294C13.9868 10.0914 13.8387 10.2736 13.7352 10.5048L13.6792 10.6451C13.5957 10.885 13.5603 11.1738 13.5546 11.7873L13.5545 13.1224L26.4823 10.4291ZM11.0538 25.4519L11.0536 24.8205L10.4223 24.8204C6.5171 24.8204 4.79534 28.0917 6.28887 29.5853C7.78241 31.0788 11.0538 29.357 11.0538 25.4519ZM26.4816 21.607L26.4823 22.2376C26.4823 26.1427 23.211 27.8645 21.7174 26.371C20.2239 24.8774 21.9457 21.6061 25.8508 21.6061L26.4816 21.607Z" fill="currentColor"/>
</svg>
